icons/door-open-fill.svg

<svg viewBox="0 0 24 24" fill="currentColor" xmlns="http://www.w3.org/2000/svg">
    <path d="M1.99805 21.0001V19.0001L3.99805 18.9999V4.83465C3.99805 4.35136 4.34367 3.93723 4.81916 3.85078L14.2907 2.12868C14.6167 2.0694 14.9291 2.28564 14.9884 2.61167C14.9948 2.64708 14.998 2.68301 14.998 2.719V3.9999L18.998 4.00007C19.5503 4.00007 19.998 4.44779 19.998 5.00007V18.9999L21.998 19.0001V21.0001H17.998V6.00007L14.998 5.9999V21.0001H1.99805ZM11.998 11.0001H9.99805V13.0001H11.998V11.0001Z"/>
</svg>

<svg xmlns="http://www.w3.org/2000/svg" viewBox="0 0 24 24">
    <g>
        <path fill="none" d="M0 0H24V24H0z"/>
        <path d="M2 21v-2h2V4.835c0-.484.346-.898.821-.984l9.472-1.722c.326-.06.638.157.697.483.007.035.01.07.01.107v1.28L19 4c.552 0 1 .448 1 1v14h2v2h-4V6h-3v15H2zm10-10h-2v2h2v-2z"/>
    </g>
</svg>
